dist/svg/u1F922.svg

<?xml version="1.0" encoding="UTF-8"?><svg id="Layer_1" xmlns="http://www.w3.org/2000/svg" viewBox="0 0 40 40"><rect y="0" width="40" height="40" style="fill:none;"/><g><circle cx="19.84912" cy="19.7251" r="17.5" style="fill:#7bd58f;"/><g><circle cx="9.02973" cy="20.55642" r="3.87229" style="fill:#23b169;"/><circle cx="30.66852" cy="20.55642" r="3.87229" style="fill:#23b169;"/></g><circle cx="15.47112" cy="15.71391" r="1.85812"/><circle cx="24.09666" cy="15.71391" r="1.85812"/><path d="M19.84913,24.1752c1.83036,0,3.18674,.32776,3.99746,.59989,.36953,.12404,.65561-.33401,.38062-.61026-.8079-.8116-2.50787-1.51058-4.37809-1.51058s-3.5702,.69898-4.37809,1.51058c-.27499,.27625,.0111,.7343,.38062,.61026,.81073-.27213,2.16711-.59989,3.99747-.59989Z" style="fill:#039133;"/><path d="M15.22672,10.21638c.94985-.44292,1.39674-.91675,1.76794-1.3394,.21407-.24374,.51788-.13145,.5153,.21521-.00557,.74886-.46836,1.76683-1.71294,2.34719-1.24459,.58036-2.32187,.28054-2.89911-.19655-.26722-.22086-.15795-.52576,.16636-.53308,.56237-.01268,1.21259-.05045,2.16245-.49337Z"/><path d="M15.02794,24.32525c-.47199-.93575-.95936-1.36782-1.39325-1.72582-.25022-.20645-.14735-.51358,.19923-.52169,.74868-.01752,1.78042,.41368,2.39887,1.63978,.61845,1.22611,.35197,2.31212-.1071,2.90379-.21252,.2739-.52065,.17408-.53795-.14985-.03001-.56172-.0878-1.21046-.55979-2.14621Z" style="fill:#039133;"/><path d="M24.67031,24.32525c.47199-.93575,.95936-1.36782,1.39325-1.72582,.25022-.20645,.14735-.51358-.19923-.52169-.74868-.01752-1.78042,.41368-2.39887,1.63978-.61845,1.22611-.35197,2.31212,.1071,2.90379,.21252,.2739,.52065,.17408,.53795-.14985,.03001-.56172,.0878-1.21046,.55979-2.14621Z" style="fill:#039133;"/><path d="M24.47152,10.21638c-.94985-.44292-1.39674-.91675-1.76794-1.3394-.21407-.24374-.51788-.13145-.5153,.21521,.00557,.74886,.46836,1.76683,1.71294,2.34719,1.24459,.58036,2.32187,.28054,2.89911-.19655,.26722-.22086,.15795-.52576-.16636-.53308-.56237-.01268-1.21259-.05045-2.16245-.49337Z"/></g></svg>

<svg id="Layer_1" data-name="Layer 1" xmlns="http://www.w3.org/2000/svg" viewBox="0 0 40 40"><defs><style>.cls-1{fill:none;}.cls-2{fill:#7bd58f;}.cls-3{fill:#23b169;}.cls-4{fill:#039133;}</style></defs><rect class="cls-1" width="40" height="40"/><circle class="cls-2" cx="19.849" cy="19.725" r="17.5"/><circle class="cls-3" cx="9.03" cy="20.556" r="3.872"/><circle class="cls-3" cx="30.669" cy="20.556" r="3.872"/><circle cx="15.471" cy="15.714" r="1.858"/><circle cx="24.097" cy="15.714" r="1.858"/><path class="cls-4" d="M19.849,24.175a12.631,12.631,0,0,1,4,.6.369.369,0,0,0,.38-.61,6.541,6.541,0,0,0-4.378-1.511,6.541,6.541,0,0,0-4.378,1.511.369.369,0,0,0,.381.61A12.618,12.618,0,0,1,19.849,24.175Z"/><path d="M15.227,10.216A4.863,4.863,0,0,0,17,8.877c.214-.244.518-.131.515.215A2.713,2.713,0,0,1,15.8,11.439a2.712,2.712,0,0,1-2.9-.2c-.267-.221-.158-.526.166-.533A4.867,4.867,0,0,0,15.227,10.216Z"/><path class="cls-4" d="M15.028,24.325A4.867,4.867,0,0,0,13.635,22.6c-.251-.206-.148-.513.2-.521a2.712,2.712,0,0,1,2.4,1.64,2.713,2.713,0,0,1-.107,2.9c-.213.274-.521.174-.538-.15A4.863,4.863,0,0,0,15.028,24.325Z"/><path class="cls-4" d="M24.67,24.325A4.867,4.867,0,0,1,26.064,22.6c.25-.206.147-.513-.2-.521a2.713,2.713,0,0,0-2.4,1.64,2.711,2.711,0,0,0,.108,2.9c.212.274.52.174.538-.15A4.859,4.859,0,0,1,24.67,24.325Z"/><path d="M24.472,10.216A4.854,4.854,0,0,1,22.7,8.877c-.214-.244-.518-.131-.516.215A2.715,2.715,0,0,0,23.9,11.439a2.712,2.712,0,0,0,2.9-.2c.268-.221.158-.526-.166-.533A4.863,4.863,0,0,1,24.472,10.216Z"/></svg>
